;FLAVOR:Marlin
;TIME:9165
;Filament used: 0m, 25.2933m
;Layer height: 0.4
;MINX:10.627
;MINY:35.579
;MINZ:0.24
;MAXX:189.373
;MAXY:164.287
;MAXZ:30.79
;Generated with Cura_SteamEngine 5.0.0
T1
M140 S60
M105
M190 S60
M104 S195
M105
M109 S195
M82 ;absolute extrusion mode
G28 ;Home
;G1 Z15.0 F6000 ;Move the platform down 15mm
;Prime the extruder
;G92 E0
;G1 F200 E3
;G92 E0
G1 X20 Y20 Z0.3
G92 E0
G92 E0
G1 F1500 E-6.5
;LAYER_COUNT:73
;LAYER:-5
M107
G0 F7200 X53.778 Y36.502 Z0.24
;TYPE:SUPPORT-INTERFACE
G1 F1500 E0
G1 F675 X53.731 Y37.02 E0.08304
G1 X53.731 Y67.66 E4.97467
G1 X53.648 Y68.589 E5.12358
G1 X53.476 Y69.327 E5.24455
G1 X53.221 Y69.996 E5.35886
G1 X52.877 Y70.651 E5.47697
G1 X52.453 Y71.255 E5.59478
G1 X51.961 Y71.795 E5.71141
G1 X51.403 Y72.27 E5.8284
G1 X50.784 Y72.673 E5.94632
G1 X50.126 Y72.991 E6.063
G1 X49.437 Y73.225 E6.17916
G1 X48.71 Y73.37 E6.29752
G1 X47.981 Y73.423 E6.41421
G1 X40.273 Y73.425 E7.64478
G1 X11.995 Y73.424 E12.15932
G1 X11.476 Y73.493 E12.24291
G1 X11.11 Y73.679 E12.30845
G1 X10.849 Y73.979 E12.37194
G1 X10.712 Y74.239 E12.41885
G1 X10.627 Y74.797 E12.50897
G1 X10.627 Y127.127 E20.86338
G1 X10.697 Y127.655 E20.94841
G1 X10.882 Y128.019 E21.0136
G1 X11.183 Y128.282 E21.07741
G1 X11.442 Y128.419 E21.12419
G1 X11.999 Y128.503 E21.21412
G1 X112.263 Y128.503 E37.22113
G1 X113.228 Y128.586 E37.37576
G1 X113.966 Y128.758 E37.49674
G1 X114.635 Y129.013 E37.61104
G1 X115.291 Y129.357 E37.7293
G1 X115.894 Y129.781 E37.84698
G1 X116.434 Y130.273 E37.96361
G1 X116.909 Y130.831 E38.0806
G1 X117.312 Y131.45 E38.19852
G1 X117.63 Y132.108 E38.31519
G1 X117.864 Y132.797 E38.43136
G1 X118.009 Y133.524 E38.54971
G1 X118.062 Y134.253 E38.6664
G1 X118.064 Y135.631 E38.8864
G1 X118.063 Y162.911 E43.24161
G1 X118.133 Y163.439 E43.32665
G1 X118.317 Y163.801 E43.39148
G1 X118.62 Y164.066 E43.45574
G1 X118.877 Y164.203 E43.50223
G1 X119.436 Y164.287 E43.59248
G1 X152.886 Y164.287 E48.93273
G1 X153.405 Y164.218 E49.01631
G1 X153.768 Y164.032 E49.08143
G1 X154.033 Y163.731 E49.14546
G1 X154.207 Y163.365 E49.21015
G1 X154.254 Y162.843 E49.29383
G1 X154.255 Y123.182 E55.62565
G1 X154.294 Y122.552 E55.72642
G1 X154.416 Y121.867 E55.8375
G1 X154.636 Y121.164 E55.9551
G1 X154.938 Y120.5 E56.07156
G1 X155.328 Y119.873 E56.18944
G1 X155.785 Y119.306 E56.30571
G1 X156.271 Y118.843 E56.41287
G1 X156.853 Y118.402 E56.52945
G1 X157.545 Y118.004 E56.65689
G1 X157.591 Y117.98 E56.66518
G1 X188.567 Y103.451 E62.12741
G1 X188.984 Y103.171 E62.2076
G1 X189.25 Y102.808 E62.27945
G1 X189.344 Y102.412 E62.34442
G1 X189.373 Y102.059 E62.40097
G1 X189.373 Y36.947 E72.79601
G1 X189.304 Y36.428 E72.8796
G1 X189.118 Y36.062 E72.94514
G1 X188.818 Y35.8 E73.00873
G1 X188.559 Y35.663 E73.05551
G1 X188 Y35.579 E73.14575
G1 X55.099 Y35.579 E94.36322
G1 X54.58 Y35.649 E94.44683
G1 X54.215 Y35.833 E94.51208
G1 X53.952 Y36.134 E94.5759
G1 X53.778 Y36.502 E94.64088
G0 F7200 X69.09 Y68.189
G1 F675 X69.582 Y67.649 E94.75751
G1 X70.14 Y67.174 E94.8745
G1 X70.759 Y66.771 E94.99242
G1 X71.417 Y66.453 E95.1091
G1 X72.106 Y66.219 E95.22526
G1 X72.833 Y66.074 E95.34361
G1 X73.562 Y66.021 E95.46031
G1 X137.994 Y66.02 E105.74679
G1 X138.963 Y66.107 E105.90211
G1 X139.661 Y66.275 E106.01673
G1 X140.33 Y66.53 E106.13103
G1 X140.985 Y66.874 E106.24914
G1 X141.589 Y67.298 E106.36696
G1 X142.129 Y67.79 E106.48358
G1 X142.604 Y68.348 E106.60057
G1 X143.007 Y68.967 E106.71849
G1 X143.325 Y69.625 E106.83517
G1 X143.559 Y70.314 E106.95134
G1 X143.704 Y71.041 E107.06969
G1 X143.757 Y71.769 E107.18622
G1 X143.759 Y71.82 E107.19437
G1 X143.758 Y111.736 E113.5669
G1 X143.681 Y112.639 E113.71159
G1 X143.564 Y113.192 E113.80183
G1 X143.367 Y113.806 E113.90477
G1 X143.023 Y114.542 E114.03448
G1 X142.649 Y115.131 E114.14586
G1 X142.159 Y115.723 E114.26855
G1 X141.64 Y116.206 E114.38174
G1 X141.347 Y116.443 E114.4419
G1 X140.811 Y116.785 E114.54341
G1 X140.153 Y117.103 E114.66008
G1 X139.464 Y117.337 E114.77625
G1 X138.737 Y117.482 E114.8946
G1 X138.008 Y117.535 E115.01129
G1 X130.604 Y117.537 E116.19333
G1 X125.584 Y117.536 E116.99477
G1 X73.612 Y117.536 E125.29203
G1 X72.647 Y117.453 E125.44666
G1 X71.909 Y117.281 E125.56764
G1 X71.24 Y117.026 E125.68194
G1 X70.584 Y116.682 E125.80019
G1 X69.981 Y116.258 E125.91788
G1 X69.439 Y115.764 E126.03495
G1 X68.966 Y115.208 E126.15149
G1 X68.563 Y114.589 E126.26942
G1 X68.244 Y113.929 E126.38645
G1 X68.01 Y113.238 E126.50292
G1 X67.866 Y112.515 E126.62061
G1 X67.813 Y111.787 E126.73714
G1 X67.812 Y71.82 E133.11782
G1 X67.874 Y71.084 E133.23574
G1 X67.915 Y70.735 E133.29184
G1 X68.077 Y70.08 E133.39956
G1 X68.322 Y69.448 E133.50777
G1 X68.666 Y68.792 E133.62603
G1 X69.09 Y68.189 E133.74371
G0 F7200 X68.142 Y68.142
G1 F675 X54.531 Y54.531 E136.81677
G0 F7200 X54.53 Y59.056
G1 F675 X67.03 Y71.555 E139.63887
G0 F7200 X67.013 Y76.064
G1 F675 X54.53 Y63.581 E142.45725
G0 F7200 X54.493 Y68.069
G1 F675 X67.013 Y80.589 E145.28398
G0 F7200 X67.013 Y85.115
G1 F675 X53.314 Y71.416 E148.3769
G0 F7200 X50.886 Y73.513
G1 F675 X67.013 Y89.641 E152.01813
G0 F7200 X67.014 Y94.167
G1 F675 X47.067 Y74.22 E156.5217
G0 F7200 X42.542 Y74.22
G1 F675 X67.014 Y98.693 E162.04704
G0 F7200 X67.015 Y103.219
G1 F675 X38.017 Y74.221 E168.59413
G0 F7200 X33.492 Y74.222
G1 F675 X67.015 Y107.744 E176.16275
G0 F7200 X67.047 Y112.301
G1 F675 X28.967 Y74.222 E184.76023
G0 F7200 X24.442 Y74.222
G1 F675 X77.92 Y127.7 E196.83435
G0 F7200 X82.445 Y127.7
G1 F675 X73.027 Y118.282 E198.96072
G0 F7200 X77.605 Y118.335
G1 F675 X86.971 Y127.7 E201.07524
G0 F7200 X91.496 Y127.7
G1 F675 X82.131 Y118.335 E203.18964
G0 F7200 X86.656 Y118.335
G1 F675 X96.022 Y127.701 E205.30427
G0 F7200 X100.548 Y127.701
G1 F675 X91.182 Y118.335 E207.4189
G0 F7200 X95.706 Y118.334
G1 F675 X105.073 Y127.701 E209.53376
G0 F7200 X109.599 Y127.701
G1 F675 X100.232 Y118.334 E211.64862
G0 F7200 X104.757 Y118.334
G1 F675 X114.543 Y128.119 E213.85796
G0 F7200 X118.451 Y132.028
G1 F675 X149.909 Y163.485 E220.96035
G0 F7200 X153.45 Y162.501
G1 F675 X109.283 Y118.334 E230.93225
G0 F7200 X113.808 Y118.334
G1 F675 X153.45 Y157.976 E239.88252
G0 F7200 X153.451 Y153.451
G1 F675 X118.333 Y118.333 E247.81136
G0 F7200 X122.859 Y118.333
G1 F675 X153.452 Y148.926 E254.71857
G0 F7200 X153.452 Y144.401
G1 F675 X127.384 Y118.333 E260.60413
G0 F7200 X131.91 Y118.333
G1 F675 X153.453 Y139.877 E265.46816
G0 F7200 X153.453 Y135.351
G1 F675 X136.435 Y118.333 E269.31044
G0 F7200 X140.46 Y117.832
G1 F675 X153.454 Y130.826 E272.24419
G0 F7200 X153.454 Y126.301
G1 F675 X143.061 Y115.908 E274.59069
G0 F7200 X144.466 Y112.788
G1 F675 X153.597 Y121.918 E276.65215
G0 F7200 X155.098 Y118.894
G1 F675 X144.553 Y108.349 E279.03297
G0 F7200 X144.553 Y103.824
G1 F675 X157.752 Y117.023 E282.01301
G0 F7200 X160.832 Y115.578
G1 F675 X144.554 Y99.299 E285.68832
G0 F7200 X144.555 Y94.774
G1 F675 X163.913 Y114.132 E290.05892
G0 F7200 X166.993 Y112.688
G1 F675 X144.555 Y90.249 E295.12502
G0 F7200 X144.555 Y85.724
G1 F675 X170.074 Y111.242 E300.88652
G0 F7200 X173.154 Y109.797
G1 F675 X144.555 Y81.199 E307.34341
G0 F7200 X144.556 Y76.674
G1 F675 X176.235 Y108.352 E314.4957
G0 F7200 X179.315 Y106.907
G1 F675 X144.556 Y72.148 E322.34349
G0 F7200 X141.539 Y68.419
G0 X137.627 Y65.219
G1 F675 X108.789 Y36.381 E328.85446
G0 F7200 X113.314 Y36.381
G1 F675 X182.395 Y105.462 E344.45138
G0 F7200 X185.475 Y104.016
G1 F675 X117.84 Y36.381 E359.72182
G0 F7200 X122.366 Y36.382
G1 F675 X188.488 Y102.504 E374.65067
G0 F7200 X188.568 Y98.058
G1 F675 X126.891 Y36.382 E388.57582
G0 F7200 X131.417 Y36.382
G1 F675 X188.568 Y93.533 E401.47922
G0 F7200 X188.569 Y89.008
G1 F675 X135.942 Y36.382 E413.36109
G0 F7200 X140.468 Y36.382
G1 F675 X188.569 Y84.482 E424.22109
G0 F7200 X188.569 Y79.958
G1 F675 X144.994 Y36.382 E434.05945
G0 F7200 X149.519 Y36.382
G1 F675 X188.569 Y75.432 E442.87605
G0 F7200 X188.57 Y70.907
G1 F675 X154.045 Y36.382 E450.67101
G0 F7200 X158.57 Y36.382
G1 F675 X188.57 Y66.382 E457.44433
G0 F7200 X188.571 Y61.857
G1 F675 X163.096 Y36.382 E463.19601
G0 F7200 X167.622 Y36.383
G1 F675 X188.571 Y57.332 E467.92581
G0 F7200 X188.571 Y52.807
G1 F675 X172.147 Y36.383 E471.63398
G0 F7200 X176.673 Y36.383
G1 F675 X188.571 Y48.281 E474.32028
G0 F7200 X188.572 Y43.757
G1 F675 X181.198 Y36.383 E475.98516
G0 F7200 X185.724 Y36.383
G1 F675 X188.572 Y39.231 E476.62817
G0 F7200 X133.102 Y65.219
G1 F675 X104.263 Y36.381 E483.13925
G0 F7200 X99.738 Y36.381
G1 F675 X128.576 Y65.219 E489.65022
G0 F7200 X124.051 Y65.219
G1 F675 X95.211 Y36.38 E496.16152
G0 F7200 X90.686 Y36.38
G1 F675 X119.526 Y65.22 E502.67294
G0 F7200 X115.001 Y65.22
G1 F675 X86.16 Y36.38 E509.18447
G0 F7200 X81.635 Y36.38
G1 F675 X110.475 Y65.22 E515.69588
G0 F7200 X105.95 Y65.22
G1 F675 X77.109 Y36.379 E522.20753
G0 F7200 X72.583 Y36.379
G1 F675 X101.425 Y65.221 E528.71939
G0 F7200 X96.899 Y65.221
G1 F675 X68.058 Y36.379 E535.23115
G0 F7200 X63.532 Y36.379
G1 F675 X92.374 Y65.221 E541.74302
G0 F7200 X87.849 Y65.222
G1 F675 X59.007 Y36.379 E548.255
G0 F7200 X54.65 Y36.548
G1 F675 X83.324 Y65.222 E554.72894
G0 F7200 X78.798 Y65.222
G1 F675 X54.532 Y40.955 E560.20776
G0 F7200 X54.532 Y45.481
G1 F675 X74.273 Y65.222 E564.66483
G0 F7200 X70.518 Y65.992
G1 F675 X54.531 Y50.005 E568.27433
G0 F7200 X52.79 Y68.507
G0 X52.119 Y70.243
G0 X50.849 Y71.609
G0 X49.167 Y72.406
G0 X19.917 Y74.222
G1 F675 X73.394 Y127.7 E580.34834
G0 F7200 X68.868 Y127.699
G1 F675 X15.392 Y74.223 E592.422
G0 F7200 X11.432 Y74.789
G1 F675 X64.343 Y127.699 E604.36799
G0 F7200 X59.817 Y127.699
G1 F675 X11.429 Y79.311 E615.2929
G0 F7200 X11.429 Y83.837
G1 F675 X55.292 Y127.699 E625.19606
G0 F7200 X50.766 Y127.699
G1 F675 X11.428 Y88.362 E634.07757
G0 F7200 X11.428 Y92.887
G1 F675 X46.24 Y127.699 E641.93733
G0 F7200 X41.715 Y127.699
G1 F675 X11.428 Y97.412 E648.77545
G0 F7200 X11.428 Y101.937
G1 F675 X37.189 Y127.699 E654.59181
G0 F7200 X32.664 Y127.699
G1 F675 X11.427 Y106.462 E659.38664
G0 F7200 X11.427 Y110.988
G1 F675 X28.137 Y127.698 E663.15938
G0 F7200 X23.612 Y127.698
G1 F675 X11.427 Y115.513 E665.91048
G0 F7200 X11.426 Y120.038
G1 F675 X19.086 Y127.698 E667.63993
G0 F7200 X14.561 Y127.698
G1 F675 X11.426 Y124.563 E668.34774
G0 F7200 X113.146 Y129.444
G0 X114.882 Y130.115
G0 X116.248 Y131.385
G0 X118.859 Y136.961
G1 F675 X145.383 Y163.485 E674.33626
G0 F7200 X140.857 Y163.484
G1 F675 X118.86 Y141.487 E679.30268
G0 F7200 X118.861 Y146.014
G1 F675 X136.331 Y163.484 E683.24701
G0 F7200 X131.805 Y163.483
G1 F675 X118.861 Y150.539 E686.16947
G0 F7200 X118.861 Y155.065
G1 F675 X127.279 Y163.483 E688.07007
G0 F7200 X122.753 Y163.482
G1 F675 X118.862 Y159.591 E688.94857
G0 F600 X118.862 Y159.591 Z0.84
G0 F7200 X152.909 Y163.486
;TIME_ELAPSED:395.129949
;LAYER:-4
;TYPE:SUPPORT
G1 F675 X153.254 Y163.417 E689.08899
G1 X153.405 Y163.251 E689.17855
G1 X153.454 Y162.898 E689.3208
G1 X153.453 Y162.198 E689.60018
G1 X152.165 Y163.486 E690.32718
G1 X149.62 Y163.486 E691.34295
G1 X153.453 Y159.653 E693.50646
G1 X153.453 Y157.107 E694.52262
G1 X147.074 Y163.486 E698.12321
G1 X144.529 Y163.486 E699.13897
G1 X153.453 Y154.562 E704.17606
G1 X153.453 Y152.016 E705.19222
G1 X141.983 Y163.486 E711.66639
G1 X139.437 Y163.486 E712.68255
G1 X153.453 Y149.471 E720.59351
G1 X153.453 Y146.925 E721.60967
G1 X136.892 Y163.486 E730.95741
G1 X134.346 Y163.486 E731.97358
G1 X153.453 Y144.379 E742.75839
G1 X153.453 Y141.834 E743.77416
G1 X131.801 Y163.486 E755.99548
G1 X129.255 Y163.486 E757.01165
G1 X153.453 Y139.288 E770.67004
G1 X153.453 Y136.743 E771.68581
G1 X126.709 Y163.486 E786.78099
G1 X124.164 Y163.486 E787.79676
G1 X153.453 Y134.197 E804.32874
G1 X153.453 Y131.651 E805.3449
G1 X121.618 Y163.486 E823.31395
G1 X119.431 Y163.486 E824.18683
G1 X119.118 Y163.441 E824.31304
G1 X153.453 Y129.106 E843.6932
G1 X153.453 Y126.56 E844.70936
G1 X118.863 Y161.151 E864.23373
G1 X118.863 Y158.605 E865.2499
G1 X153.453 Y124.015 E884.77399
G1 X153.453 Y123.183 E885.10606
G1 X153.497 Y122.438 E885.40392
G1 X153.65 Y121.618 E885.73685
G1 X153.814 Y121.109 E885.95028
G1 X118.863 Y156.059 E905.67786
G1 X118.863 Y153.514 E906.69362
G1 X188.571 Y83.805 E946.04011
G1 X188.571 Y81.26 E947.05588
G1 X118.863 Y150.968 E986.40208
G1 X118.863 Y148.423 E987.41785
G1 X188.571 Y78.714 E1026.76434
G1 X188.571 Y76.168 E1027.7805
G1 X118.863 Y145.877 E1067.12699
G1 X118.863 Y143.331 E1068.14315
G1 X188.571 Y73.623 E1107.48936
G1 X188.571 Y71.077 E1108.50552
G1 X118.863 Y140.786 E1147.85201
G1 X118.863 Y138.24 E1148.86818
G1 X138.825 Y118.278 E1160.13559
G1 X139.611 Y118.129 E1160.45489
G1 X140.403 Y117.867 E1160.78784
G1 X141.156 Y117.511 E1161.12027
G1 X141.861 Y117.061 E1161.45409
G1 X142.502 Y116.524 E1161.78784
G1 X143.068 Y115.915 E1162.11967
G1 X143.556 Y115.235 E1162.45373
G1 X143.953 Y114.501 E1162.78679
G1 X144.253 Y113.723 E1163.11959
G1 X144.459 Y112.893 E1163.46092
G1 X144.484 Y112.619 E1163.57073
G1 X188.571 Y68.532 E1188.45534
G1 X188.571 Y65.986 E1189.4715
G1 X144.557 Y110.001 E1214.31519
G1 X144.557 Y107.455 E1215.33135
G1 X188.571 Y63.44 E1240.17504
G1 X188.571 Y60.895 E1241.1908
G1 X144.557 Y104.909 E1266.0342
G1 X144.557 Y102.364 E1267.04997
G1 X188.571 Y58.349 E1291.89365
G1 X188.571 Y55.804 E1292.90942
G1 X144.557 Y99.818 E1317.75282
G1 X144.557 Y97.273 E1318.76859
G1 X188.571 Y53.258 E1343.61227
G1 X188.571 Y50.712 E1344.62844
G1 X144.557 Y94.727 E1369.47212
G1 X144.557 Y92.181 E1370.48829
G1 X188.571 Y48.167 E1395.33169
G1 X188.571 Y45.621 E1396.34785
G1 X144.557 Y89.636 E1421.19154
G1 X144.557 Y87.09 E1422.2077
G1 X188.571 Y43.076 E1447.05111
G1 X188.571 Y40.53 E1448.06727
G1 X144.557 Y84.545 E1472.91095
G1 X144.557 Y81.999 E1473.92712
G1 X188.571 Y37.985 E1498.77052
G1 X188.571 Y36.92 E1499.19559
G1 X188.504 Y36.577 E1499.33507
G1 X188.333 Y36.425 E1499.42639
G1 X187.632 Y36.379 E1499.70677
G1 X144.557 Y79.454 E1524.02016
G1 X144.557 Y76.908 E1525.03633
G1 X185.086 Y36.379 E1547.91265
G1 X182.541 Y36.379 E1548.92841
G1 X144.557 Y74.362 E1570.36794
G1 X144.557 Y71.817 E1571.3837
G1 X179.995 Y36.379 E1591.38644
G1 X177.449 Y36.379 E1592.40261
G1 X144.18 Y69.648 E1611.18107
G1 X144.089 Y69.373 E1611.29668
G1 X143.732 Y68.62 E1611.62928
G1 X143.315 Y67.967 E1611.93852
G1 X174.904 Y36.379 E1629.76843
G1 X172.358 Y36.379 E1630.7846
G1 X142.073 Y66.664 E1647.87876
G1 X141.457 Y66.219 E1648.18206
G1 X140.722 Y65.823 E1648.51528
G1 X140.466 Y65.725 E1648.62469
G1 X169.813 Y36.379 E1665.18912
G1 X167.267 Y36.379 E1666.20529
G1 X138.393 Y65.253 E1682.50302
G1 X138.029 Y65.219 E1682.64893
G1 X135.881 Y65.219 E1683.50624
G1 X164.721 Y36.379 E1699.78479
G1 X162.176 Y36.379 E1700.80055
G1 X133.335 Y65.219 E1717.07938
G1 X130.79 Y65.219 E1718.09514
G1 X159.63 Y36.379 E1734.37368
G1 X157.085 Y36.379 E1735.38945
G1 X128.244 Y65.219 E1751.66827
G1 X125.698 Y65.219 E1752.68443
G1 X154.539 Y36.379 E1768.96326
G1 X151.994 Y36.379 E1769.97902
G1 X123.153 Y65.219 E1786.25785
G1 X120.607 Y65.219 E1787.27401
G1 X149.448 Y36.379 E1803.55284
G1 X146.902 Y36.379 E1804.569
G1 X118.062 Y65.219 E1820.84754
G1 X115.516 Y65.219 E1821.86371
G1 X144.357 Y36.379 E1838.14253
G1 X141.811 Y36.379 E1839.15869
G1 X112.97 Y65.219 E1855.43752
G1 X110.425 Y65.219 E1856.45328
G1 X139.266 Y36.379 E1872.73211
G1 X136.72 Y36.379 E1873.74827
G1 X107.879 Y65.219 E1890.02709
G1 X105.334 Y65.219 E1891.04286
G1 X134.174 Y36.379 E1907.3214
G1 X131.629 Y36.379 E1908.33717
G1 X102.788 Y65.219 E1924.61599
G1 X100.242 Y65.219 E1925.63215
G1 X129.083 Y36.379 E1941.91098
G1 X126.538 Y36.379 E1942.92674
G1 X97.697 Y65.219 E1959.20557
G1 X95.151 Y65.219 E1960.22173
G1 X123.992 Y36.379 E1976.50056
G1 X121.447 Y36.379 E1977.51632
G1 X92.606 Y65.219 E1993.79514
G1 X90.06 Y65.219 E1994.81131
G1 X118.901 Y36.379 E2011.09013
G1 X116.355 Y36.379 E2012.1063
G1 X87.515 Y65.219 E2028.38484
G1 X84.969 Y65.219 E2029.401
G1 X113.81 Y36.379 E2045.67983
G1 X111.264 Y36.379 E2046.69599
G1 X82.423 Y65.219 E2062.97481
G1 X79.878 Y65.219 E2063.99058
G1 X108.719 Y36.379 E2080.2694
G1 X106.173 Y36.379 E2081.28557
G1 X77.332 Y65.219 E2097.56439
G1 X74.787 Y65.219 E2098.58016
G1 X103.627 Y36.379 E2114.8587
